X:1
T:Title
%%score 1 ( 2 3 )
L:1/8
Q:1/4=100
M:4/4
K:Eb
V:1 treble nm="Grand Piano, Soprano"
V:2 bass nm="Choir Pad, Speak Just a Word (Avis)"
V:3 bass 
V:1
 [EG]2 [EG]>[FA] [GB]2 [Ge]2 | [Bd]2 [Ac]2 [GB]4 | [EB]2 [DF]>[EG] [FA]2 z2 | %3
w: By~Edward~Columbus~Avis * * * *|||
 [GB]2 E>[DF] [EG]2 z2 | [EG]2 [EG]>[FA] [GB]2 [Ge]2 | [Bd]2 [Ac]2 [GB]4 | E2 E>[EF] [EG]2 E2 | %7
w: ||||
 [DF]4 E2 z2 | [DF]2 [DF]>[EG] [FA]4 | [EG]2 [EG]>[FA] [GB]4 | [E=A]2 [EA]>[EA] [EG]2 [EA]2 | %11
w: ||||
 [DB]6 z2 | [EG]2 [EG]>[FA] [GB]2 [Ge]2 | [Bd]2 [Ac]2 [GB]4 | E2 E>[EF] [EG]2 E2 | [DF]4 E4- | %16
w: |||||
 E4 z4 |] %17
w: |
V:2
 [E,B,]2 [E,B,]>[E,B,] [E,E]2 [E,B,]2 | A,B,CD [E,E]4 | [E,G,]2 [B,,B,]>[B,,B,] [B,,B,]2 z2 | %3
 [E,B,]2 [E,G,]>[E,A,] [E,B,]2 z2 | [E,B,]2 [E,B,]>[E,B,] [E,E]2 [E,B,]2 | A,B,CD [E,E]4 | %6
 [E,G,]2 [E,G,]>[E,A,] [E,B,]2 [E,G,]2 | B,2 A,2 [E,G,]2 z2 | %8
 [B,,B,]2 [B,,B,]>[B,,B,] B,2- [B,,B,]2 | [E,B,]2 [E,B,]>[E,B,] B,2- [E,B,]2 | %10
 [F,C]2 [F,C]>[F,C] [F,B,]2 [F,C]2 | [B,,B,]6 z2 | [E,B,]2 [E,B,]>[E,B,] [E,E]2 [E,B,]2 | %13
 E,-[E,B,]CD [E,E]4 | [E,G,]2 [E,G,]>[E,A,] [E,B,]2 [E,G,]2 | B,2 A,2 [E,G,]4- | [E,G,]4 z4 |] %17
V:3
 x8 | E,2 E,2 z4 | x8 | x8 | x8 | E,2 E,2 z4 | x8 | B,,4 z4 | z4 D,2 z2 | z4 G,2 z2 | x8 | x8 | %12
 x8 | .A,2 E,2 z4 | x8 | B,,4 z4 | x8 |] %17

